Newaita-dark/actions/24/artifact.svg

<svg height="24" viewBox="0 0 24 24" width="24" xmlns="http://www.w3.org/2000/svg"><g fill="#e0e0e0"><path d="m5.953125 2.171875c-1.097656 0-1.984375.886719-1.984375 1.984375v5.457031h1.984375v-4.464843c0-.550782.441406-.992188.992187-.992188h3.96875v-.003906h3.5625l3.390626 3.390625v2.070312h1.972656v-2.480469c0-.261718-.101563-.511718-.289063-.699218l-3.96875-3.96875c-.183593-.183594-.4375-.289063-.699219-.289063h-3.96875v-.003906zm-1.984375 12.402344v5.457031c0 1.101562.886719 1.988281 1.984375 1.988281h11.90625c1.101563 0 1.984375-.886719 1.984375-1.988281v-5.457031h-1.984375v4.464843c0 .550782-.441406.992188-.992187.992188h-9.921876c-.550781 0-.992187-.441406-.992187-.992188v-4.464843zm0 0"/><path d="m3.226562 11.597656h3.472657c.136719 0 .246093.113282.246093.25v.496094c0 .136719-.109374.246094-.246093.246094h-3.472657c-.136718 0-.25-.109375-.25-.246094v-.496094c0-.136718.113282-.25.25-.25zm0 0"/><path d="m10.171875 11.597656h3.472656c.136719 0 .246094.113282.246094.25v.496094c0 .136719-.109375.246094-.246094.246094h-3.472656c-.136719 0-.25-.109375-.25-.246094v-.496094c0-.136718.113281-.25.25-.25zm0 0"/><path d="m17.117188 11.597656h3.472656c.136718 0 .25.113282.25.25v.496094c0 .136719-.113282.246094-.25.246094h-3.472656c-.136719 0-.25-.109375-.25-.246094v-.496094c0-.136718.113281-.25.25-.25zm0 0"/></g></svg>

<?xml version="1.0" encoding="UTF-8"?>
<svg xmlns="http://www.w3.org/2000/svg" xmlns:xlink="http://www.w3.org/1999/xlink" width="24px" height="24px" viewBox="0 0 24 24" version="1.1">
<g id="surface1">
<path style=" stroke:none;fill-rule:nonzero;fill:rgb(87.843138%,87.843138%,87.843138%);fill-opacity:1;" d="M 5.953125 2.171875 C 4.855469 2.171875 3.96875 3.058594 3.96875 4.15625 L 3.96875 9.613281 L 5.953125 9.613281 L 5.953125 5.148438 C 5.953125 4.597656 6.394531 4.15625 6.945312 4.15625 L 10.914062 4.15625 L 10.914062 4.152344 L 14.476562 4.152344 L 17.867188 7.542969 L 17.867188 9.613281 L 19.839844 9.613281 L 19.839844 7.132812 C 19.839844 6.871094 19.738281 6.621094 19.550781 6.433594 L 15.582031 2.464844 C 15.398438 2.28125 15.144531 2.175781 14.882812 2.175781 L 10.914062 2.175781 L 10.914062 2.171875 Z M 3.96875 14.574219 L 3.96875 20.03125 C 3.96875 21.132812 4.855469 22.019531 5.953125 22.019531 L 17.859375 22.019531 C 18.960938 22.019531 19.84375 21.132812 19.84375 20.03125 L 19.84375 14.574219 L 17.859375 14.574219 L 17.859375 19.039062 C 17.859375 19.589844 17.417969 20.03125 16.867188 20.03125 L 6.945312 20.03125 C 6.394531 20.03125 5.953125 19.589844 5.953125 19.039062 L 5.953125 14.574219 Z M 3.96875 14.574219 "/>
<path style=" stroke:none;fill-rule:nonzero;fill:rgb(87.843138%,87.843138%,87.843138%);fill-opacity:1;" d="M 3.226562 11.597656 L 6.699219 11.597656 C 6.835938 11.597656 6.945312 11.710938 6.945312 11.847656 L 6.945312 12.34375 C 6.945312 12.480469 6.835938 12.589844 6.699219 12.589844 L 3.226562 12.589844 C 3.089844 12.589844 2.976562 12.480469 2.976562 12.34375 L 2.976562 11.847656 C 2.976562 11.710938 3.089844 11.597656 3.226562 11.597656 Z M 3.226562 11.597656 "/>
<path style=" stroke:none;fill-rule:nonzero;fill:rgb(87.843138%,87.843138%,87.843138%);fill-opacity:1;" d="M 10.171875 11.597656 L 13.644531 11.597656 C 13.78125 11.597656 13.890625 11.710938 13.890625 11.847656 L 13.890625 12.34375 C 13.890625 12.480469 13.78125 12.589844 13.644531 12.589844 L 10.171875 12.589844 C 10.035156 12.589844 9.921875 12.480469 9.921875 12.34375 L 9.921875 11.847656 C 9.921875 11.710938 10.035156 11.597656 10.171875 11.597656 Z M 10.171875 11.597656 "/>
<path style=" stroke:none;fill-rule:nonzero;fill:rgb(87.843138%,87.843138%,87.843138%);fill-opacity:1;" d="M 17.117188 11.597656 L 20.589844 11.597656 C 20.726562 11.597656 20.839844 11.710938 20.839844 11.847656 L 20.839844 12.34375 C 20.839844 12.480469 20.726562 12.589844 20.589844 12.589844 L 17.117188 12.589844 C 16.980469 12.589844 16.867188 12.480469 16.867188 12.34375 L 16.867188 11.847656 C 16.867188 11.710938 16.980469 11.597656 17.117188 11.597656 Z M 17.117188 11.597656 "/>
</g>
</svg>
